X:4025
T:Doncaster Races
R:Jig
C:Trad.
O:Wales
Z:Paul Hardy's Session Tunebook 2015 (see www.paulhardy.net). Creative Commons cc by-nc-sa licenced.
M:6/8
L:1/8
Q:3/8=100
K:G
d|"G" d2B dcA|G2G GFG|"D" AFD DEF|"G" GBd "C" gfe|
"G" d2B dcA|G2G GFG|"D" AFD DEF|"G" GD BG2:|
|:B|"D" Adf fef|"G" gdB dBG|"D" Adf fef|"G" gdB GBd|
"C" ece gfe|"G" dBG gdB|"C" dcA "D" DFA|"G" B3G2:|

